!!!COM: Sagap, Awang Haji Besar Bin
!!!CDT: 1914-1988
!!!OTL: National Anthem, Brunei Darussalam
!!!ENC: Davis, Matthew J.
!!Vocal Line Only
**kern
*clefG2
*k[b-]
*F:
*M4/4
=1-
4cc
4a
4.g
8f
=2
2f
4f
4g
=3
4a
4b-
2cc
=4
4ff
4dd
4cc
8b-
8a
=5
2b-
4cc
4b-
=6
4a
8.b-
16a
2g
=7
4cc
4a
4.g
8f
=8
2f
4f
4a
=9
4b-
4cc
2dd
=10
4ff
4ee
4dd
8cc
8b-
=11
2a
4b-
4dd
=12
4cc
4a
2g
=13
4f
4a
4b-
4cc
=14
2dd
4b-
4dd
=15
4cc
8b-
8a
2b-
=16
4dd
4cc
4b-
8.ee
16ee
=17
2ff
4dd
4b-
=18
8a
8cc
8g
8e
2f
==|!
*-
